X: 15526
T: Glentaun, The
R: reel
M: 4/4
K: Gmajor
|:DGBG AGBG|DGBG AE~E2|DGBG AGAB|d2ed BGG2:|
BddB d2ef|g2fg eA~A2|B/c/d ed Bdgd|BdAd BGG2|
BddB d2ef|g2fg eA~A2|B/c/d ef g3e|dBAd BGG2||

